X:12
T:13c. The Road to Ballyfarnon
C:Larry Mallette
R:slip jig
N:I had some tunes with some great musicians at a magical spot along the road from Keadue to Ballyfarnon.
M:9/8
Q:320
K:Em
"Slip Jig"
~B3 EGB EGB|~B3 edB edB|~A3 DEG cBA|~G3 AFD E3:|
B2e gfe gfe|c2d efe dcA|1c2d edc AGE|BEG EGF E3:|
[2c2d efg agf|dBG EGF E3||BEG EGA ~B3|c2B AGE ~A3|
[1c2B AGE AGE|BEG EGF E3:|2c2B AGE DEG|BEG EGF E3||
B2d edB edB|A2B cBA cBA|G2A BAG ~F3|GEG AFD E3|
B2d edB edB|A2B cBA ABc|G2A BAG F2E|~G3 AFD E3|]





